symbols/web/window/materialsymbolssharp/window_wght500gradN25_20px.svg

<svg xmlns="http://www.w3.org/2000/svg" height="20" width="20"><path d="M1.708 18.292V1.708h16.584v16.584Zm7.48-9.125V3.583H3.583v5.584Zm0 1.645H3.583v5.605h5.605Zm1.645 0v5.605h5.584v-5.605Zm0-1.645h5.584V3.583h-5.584Z"/></svg>

<svg xmlns="http://www.w3.org/2000/svg" height="20" width="20"><path d="M1.708 18.292V1.708H18.292V18.292ZM9.188 9.167V3.583H3.583V9.167ZM9.188 10.812H3.583V16.417H9.188ZM10.833 10.812V16.417H16.417V10.812ZM10.833 9.167H16.417V3.583H10.833Z"/></svg>
